X:7
T:
S:Efter Elisabet Olofsdotter, Flors i Burs.
M:2/4
L:1/8
K:C
C|C D E F|G A G c|B A G A|B c d e|
w:Dä stou-'n flik-kä vi 'n pump, ja vi 'n pump, u höis-tä vatt-nä
c2 G2|A D F2|G C E> G|A> G F B,|D2 C|]
w:kla-rä Hå, hå, hå! Nån, nån, nå! U höi-stä vatt-nä kla-rä.